X:1
T:Robinslaw
T:Robinslaw
T:John Pringle
C:John Pringle
L:1/8
Q:1/4=120
M:6/8
K:C
V:1 treble 
V:1
"^Slowish" G | c2 c{d} cBc | d2 d def | (ec).B (Ad).c | c3 B2 G | c2 c{d} cbc | d2 d def | %7
 (ge).c .G(cB) | c3- c2 :| (e/f/) | g2 g (gab) | cc (cb).a | (gfe) (fa).c | (c3 B2) e/f/ | %14
 g2 g (gab) | (cb).a (gf).e | (df).a (Bc).d | c3 c2 e/f/ | (ge).g (gab) | (cb).a (gf).e | %20
 (de).f .A(dc) | (c3 B2) G | c2 c (AF).D | (Bc).d (e2 f) | (g<e)c A2 B | c3 c2 || %26

